assets/images/mobile-white-bg.svg

<svg xmlns="http://www.w3.org/2000/svg" width="682" height="1377" viewBox="0 0 682 1377"><defs><style>.cls-1,.cls-2{fill:#fff;stroke:#d9d9d9;stroke-width:2px;fill-rule:evenodd}.cls-2{fill:none}</style></defs><path class="cls-1" d="M85 0h506a85 85 0 0 1 85 85v1207a85 85 0 0 1-85 85H85a85 85 0 0 1-85-85V85A85 85 0 0 1 85 0zm590 546h5v205h-5V546zm0-187h7v93h-7v-93z"/><path class="cls-2" d="M225 1311h226a11 11 0 0 1 0 22H225a11 11 0 0 1 0-22zm-.5-1265h226a11.5 11.5 0 0 1 0 23h-226a11.5 11.5 0 0 1 0-23zM127 50a8 8 0 1 1-8 8 8 8 0 0 1 8-8z"/></svg>

<svg xmlns="http://www.w3.org/2000/svg" width="682" height="1377" viewBox="0 0 682 1377"><defs><style>.cls-1,.cls-2{fill:#fff;stroke:#d9d9d9;stroke-width:2px;fill-rule:evenodd}.cls-2{fill:none}</style></defs><path class="cls-1" d="M85,0H591a85,85,0,0,1,85,85V1292a85,85,0,0,1-85,85H85a85,85,0,0,1-85-85V85A85,85,0,0,1,85,0ZM675,546h5V751h-5V546Zm0-187h7v93h-7V359Z"/><path class="cls-2" d="M225,1311H451a11,11,0,0,1,0,22H225A11,11,0,0,1,225,1311ZM224.5,46h226a11.5,11.5,0,0,1,0,23h-226A11.5,11.5,0,0,1,224.5,46ZM127,50a8,8,0,1,1-8,8A8,8,0,0,1,127,50Z"/></svg>
